src/assets/svg/icons/fa/nuevos/classic/duotone/location-crosshairs-slash classic duotone.svg

<svg xmlns="http://www.w3.org/2000/svg" viewBox="0 0 640 512"><defs><style>.fa-secondary{opacity:.4}</style></defs><path class="fa-primary" d="M5.112 9.194C13.29-1.238 28.37-3.067 38.81 5.11L630.8 469.1C641.2 477.3 643.1 492.4 634.9 502.8C626.7 513.2 611.6 515.1 601.2 506.9L9.196 42.89C-1.236 34.71-3.065 19.63 5.112 9.194V9.194z"/><path class="fa-secondary" d="M509.3 288C505.3 312 496.8 334.5 484.8 354.6L433.8 314.7C442.9 297.1 448 277.2 448 256C448 185.3 390.7 128 320 128C287.8 128 258.3 139.9 235.8 159.5L184.9 119.6C212.4 92.34 248.1 73.35 288 66.65V32C288 14.33 302.3 0 320 0C337.7 0 352 14.33 352 32V66.65C432.4 80.14 495.9 143.6 509.3 224H544C561.7 224 576 238.3 576 256C576 273.7 561.7 288 544 288H509.3zM400 256C400 265.9 398.2 275.4 394.9 284.2L274.7 190C287.6 181.2 303.2 176 320 176C364.2 176 400 211.8 400 256zM352 445.3V480C352 497.7 337.7 512 320 512C302.3 512 288 497.7 288 480V445.3C207.6 431.9 144.1 368.4 130.7 288H96C78.33 288 64 273.7 64 256C64 238.3 78.33 224 96 224H130.7C131.9 216.8 133.5 209.7 135.5 202.7L192.3 247.5C192.1 250.3 192 253.1 192 256C192 326.7 249.3 384 320 384C333.3 384 346.1 381.1 358.2 378.2L414.9 422.9C395.8 433.8 374.6 441.6 352 445.3V445.3z"/></svg>

<svg xmlns="http://www.w3.org/2000/svg" viewBox="0 0 640 512"><!--! Font Awesome Pro 6.4.0 by @fontawesome - https://fontawesome.com License - https://fontawesome.com/license (Commercial License) Copyright 2023 Fonticons, Inc. --><defs><style>.fa-secondary{opacity:.4}</style></defs><path class="fa-primary" d="M5.1 9.2C13.3-1.2 28.4-3.1 38.8 5.1l592 464c10.4 8.2 12.3 23.3 4.1 33.7s-23.3 12.3-33.7 4.1L9.2 42.9C-1.2 34.7-3.1 19.6 5.1 9.2z"/><path class="fa-secondary" d="M509.3 288c-4 24-12.5 46.5-24.6 66.6l-51-40c9.1-17.6 14.2-37.5 14.2-58.7c0-70.7-57.3-128-128-128c-32.2 0-61.7 11.9-84.2 31.5l-51-40C212.4 92.3 248.1 73.3 288 66.7V32c0-17.7 14.3-32 32-32s32 14.3 32 32V66.7C432.4 80.1 495.9 143.6 509.3 224H544c17.7 0 32 14.3 32 32s-14.3 32-32 32H509.3zM400 256c0 9.9-1.8 19.4-5.1 28.2L274.7 190c12.9-8.8 28.5-14 45.3-14c44.2 0 80 35.8 80 80zM358.2 378.2l56.8 44.7c-19.2 10.9-40.4 18.6-62.9 22.4V480c0 17.7-14.3 32-32 32s-32-14.3-32-32V445.3C207.6 431.9 144.1 368.4 130.7 288H96c-17.7 0-32-14.3-32-32s14.3-32 32-32h34.7c1.2-7.2 2.8-14.3 4.8-21.3l56.8 44.7c-.2 2.8-.3 5.6-.3 8.5c0 70.7 57.3 128 128 128c13.3 0 26.1-2 38.2-5.8z"/></svg>
